X: 3181
T: Bee In The Bonnet, The
R: reel
M: 4/4
K: Eminor
EAAB cdec|dedc BGBd|ecAe dBGA|BcBA GAFA|
EAAB cdec|dedc BGBd|g2eg dBGA|BedB A4:|
A^cea gfgd|egdc BGBd|A^cea gfgd|egdc B4|
A^cea gfgd|egdc BGBe|ae^ce gdBg|dcBG A4:|

